svgs/2642.svg

<svg xmlns="http://www.w3.org/2000/svg" xmlns:xlink="http://www.w3.org/1999/xlink" preserveAspectRatio="none" viewBox="0 0 72 72"><defs><path id="a" fill="#79D2ED" d="M72 6.75Q72 4 70 2t-4.75-2H6.75Q3.95 0 2 2 0 4 0 6.75v58.5q0 2.8 2 4.8Q3.95 72 6.75 72h58.5Q68 72 70 70.05q2-2 2-4.8V6.75z"/><path id="b" fill="#00B3E5" d="M72 6.75q0-2.8-2-4.75L1.95 70.05Q3.9 72 6.75 72h58.5Q68 72 70 70.05q2-2 2-4.8V6.75z"/><path id="c" fill="#40C0E7" d="M63 16.25q0-2.8-1.95-4.75-2-2-4.8-2h-40.6q-2.75 0-4.75 2-2 1.95-2 4.75V56.8q0 2.8 2 4.8 2 1.95 4.75 1.95h40.6q2.8 0 4.8-1.95 1.95-2 1.95-4.8V16.25z"/><path id="d" fill="#FFF" d="M119.15 9.05h-16.4V50.3h16.4V9.05z"/><path id="e" fill="#FFF" d="M119.25 25.45V9.05H78v16.4h41.25z"/><path id="f" fill="#FFF" d="M110.35 29.45l-11.6-11.6-31.5 31.5 11.6 11.6 31.5-31.5z"/><path id="g" fill="#FFF" d="M19.65 50.75Q7.7 62.7 7.7 79.65q0 16.9 11.95 28.85 11.95 12 28.9 12t28.9-12Q89.4 96.55 89.4 79.65q0-16.95-11.95-28.9-11.95-12-28.9-12t-28.9 12m4.9 28.9q0-10 7.05-17 7-7.05 16.95-7.05t17 7.05q7 7 7 17 0 9.95-7 16.95-7 7.05-16.95 7.05-10 0-17-7.05-7.05-7-7.05-16.95z"/></defs><use xlink:href="#a"/><use xlink:href="#b"/><use xlink:href="#c"/><use transform="matrix(.39943 0 0 .39943 10.65 10.15)" xlink:href="#d"/><use transform="matrix(.39943 0 0 .39943 10.65 10.15)" xlink:href="#e"/><use transform="matrix(.39943 0 0 .39943 10.65 10.15)" xlink:href="#f"/><use transform="matrix(.39944 0 0 .39944 10.65 10.15)" xlink:href="#g"/></svg>

<svg xmlns="http://www.w3.org/2000/svg" version="1.1" xmlns:xlink="http://www.w3.org/1999/xlink" preserveAspectRatio="none" x="0px" y="0px" width="72px" height="72px" viewBox="0 0 72 72">
<defs>
<g id="Layer0_0_MEMBER_0_MEMBER_0_FILL">
<path fill="#79D2ED" stroke="none" d="
M 72 6.75
Q 72 4 70 2 68 0 65.25 0
L 6.75 0
Q 3.95 0 2 2 0 4 0 6.75
L 0 65.25
Q 0 68.05 2 70.05 3.95 72 6.75 72
L 65.25 72
Q 68 72 70 70.05 72 68.05 72 65.25
L 72 6.75 Z"/>
</g>

<g id="Layer0_0_MEMBER_0_MEMBER_1_MEMBER_0_FILL">
<path fill="#00B3E5" stroke="none" d="
M 72 6.75
Q 72 3.95 70 2
L 1.95 70.05
Q 3.9 72 6.75 72
L 65.25 72
Q 68 72 70 70.05 72 68.05 72 65.25
L 72 6.75 Z"/>
</g>

<g id="Layer0_0_MEMBER_0_MEMBER_2_FILL">
<path fill="#40C0E7" stroke="none" d="
M 63 16.25
Q 63 13.45 61.05 11.5 59.05 9.5 56.25 9.5
L 15.65 9.5
Q 12.9 9.5 10.9 11.5 8.9 13.45 8.9 16.25
L 8.9 56.8
Q 8.9 59.6 10.9 61.6 12.9 63.55 15.65 63.55
L 56.25 63.55
Q 59.05 63.55 61.05 61.6 63 59.6 63 56.8
L 63 16.25 Z"/>
</g>

<g id="Layer0_1_MEMBER_0_MEMBER_0_MEMBER_0_FILL">
<path fill="#FFFFFF" stroke="none" d="
M 119.15 9.05
L 102.75 9.05 102.75 50.3 119.15 50.3 119.15 9.05 Z"/>
</g>

<g id="Layer0_1_MEMBER_0_MEMBER_0_MEMBER_1_FILL">
<path fill="#FFFFFF" stroke="none" d="
M 119.25 25.45
L 119.25 9.05 78 9.05 78 25.45 119.25 25.45 Z"/>
</g>

<g id="Layer0_1_MEMBER_0_MEMBER_0_MEMBER_2_FILL">
<path fill="#FFFFFF" stroke="none" d="
M 110.35 29.45
L 98.75 17.85 67.25 49.35 78.85 60.95 110.35 29.45 Z"/>
</g>

<g id="Layer0_1_MEMBER_0_MEMBER_1_FILL">
<path fill="#FFFFFF" stroke="none" d="
M 19.65 50.75
Q 7.7 62.7 7.7 79.65 7.7 96.55 19.65 108.5 31.6 120.5 48.55 120.5 65.5 120.5 77.45 108.5 89.4 96.55 89.4 79.65 89.4 62.7 77.45 50.75 65.5 38.75 48.55 38.75 31.6 38.75 19.65 50.75
M 24.55 79.65
Q 24.55 69.65 31.6 62.65 38.6 55.6 48.55 55.6 58.5 55.6 65.55 62.65 72.55 69.65 72.55 79.65 72.55 89.6 65.55 96.6 58.55 103.65 48.6 103.65 38.6 103.65 31.6 96.6 24.55 89.6 24.55 79.65 Z"/>
</g>
</defs>

<g id="Layer_1">
<g transform="matrix( 1, 0, 0, 1, 0,0) ">
<use xlink:href="#Layer0_0_MEMBER_0_MEMBER_0_FILL"/>
</g>

<g transform="matrix( 1, 0, 0, 1, 0,0) ">
<use xlink:href="#Layer0_0_MEMBER_0_MEMBER_1_MEMBER_0_FILL"/>
</g>

<g transform="matrix( 1, 0, 0, 1, 0,0) ">
<use xlink:href="#Layer0_0_MEMBER_0_MEMBER_2_FILL"/>
</g>

<g transform="matrix( 0.3994293212890625, 0, 0, 0.3994293212890625, 10.65,10.15) ">
<use xlink:href="#Layer0_1_MEMBER_0_MEMBER_0_MEMBER_0_FILL"/>
</g>

<g transform="matrix( 0.3994293212890625, 0, 0, 0.3994293212890625, 10.65,10.15) ">
<use xlink:href="#Layer0_1_MEMBER_0_MEMBER_0_MEMBER_1_FILL"/>
</g>

<g transform="matrix( 0.3994293212890625, 0, 0, 0.3994293212890625, 10.65,10.15) ">
<use xlink:href="#Layer0_1_MEMBER_0_MEMBER_0_MEMBER_2_FILL"/>
</g>

<g transform="matrix( 0.399444580078125, 0, 0, 0.399444580078125, 10.65,10.15) ">
<use xlink:href="#Layer0_1_MEMBER_0_MEMBER_1_FILL"/>
</g>
</g>
</svg>
